Papirus/24x24/panel/mintupdate-checking.svg

<?xml version="1.0" encoding="UTF-8" standalone="no"?>
<svg xmlns:dc="http://purl.org/dc/elements/1.1/" xmlns:cc="http://creativecommons.org/ns#" xmlns:rdf="http://www.w3.org/1999/02/22-rdf-syntax-ns#" xmlns:svg="http://www.w3.org/2000/svg" xmlns="http://www.w3.org/2000/svg" version="1.1" id="svg2" height="24" viewBox="0 0 6.7733335 6.7733335" width="24">
    <metadata id="metadata18">
        <rdf:RDF>
            <cc:Work rdf:about="">
                <dc:format>
                    image/svg+xml
                </dc:format>
                <dc:type rdf:resource="http://purl.org/dc/dcmitype/StillImage"/>
                <dc:title/>
            </cc:Work>
        </rdf:RDF>
    </metadata>
    <path id="path4171" d="M 3.3866666,1.1288889 C 2.7804181,1.684804 1.7595497,2.1744908 1.4111111,2.2577777 c 0,1.5051851 0.7408333,3.1358025 1.9755555,3.3866667 C 4.6213888,5.3935802 5.3622222,3.7629628 5.3622222,2.2577777 5.0137836,2.1744908 3.9929152,1.684804 3.3866666,1.1288889 Z m 0.04079,1.1283376 0,5.504e-4 5.644e-4,0 c 0.3694289,0.013547 0.7055909,0.2080992 0.9039931,0.5131814 L 4.7239148,2.6403212 4.2807379,3.5283289 3.3927299,3.0840494 3.7532247,2.9638845 C 3.6578336,2.8809112 3.5380258,2.8264687 3.4065102,2.821671 3.1971016,2.814051 3.0016229,2.9218731 2.8966362,3.103342 L 2.4077083,2.8211198 C 2.6165528,2.4593108 3.01005,2.2417043 3.4274565,2.2572265 Z M 2.4925954,3.2450043 3.3806034,3.6892839 3.0201085,3.8094488 C 3.1154995,3.8924218 3.2353075,3.9463133 3.366823,3.9511111 3.5762316,3.9587311 3.7717103,3.8509089 3.876697,3.66944 L 4.3656249,3.9516622 C 4.1567805,4.3134711 3.7632834,4.5310777 3.3458768,4.5155555 2.9764477,4.5020088 2.6402858,4.3074564 2.4418837,4.0023742 L 2.0499696,4.133012 2.4925954,3.2450043 Z" style="opacity:1;fill:#ffffff;fill-opacity:1;fill-rule:evenodd;stroke:none"/>
    <g id="g6" transform="matrix(0.28222222,0,0,0.28222222,-10.6045,0.81153005)">
        <g id="g8" transform="matrix(0.42297932,0,0,0.42297932,-11.083711,3.1945516)">
<!--color: #004794-->
        </g>
    </g>
    <g id="g10" style="stroke:#000000;stroke-width:1;stroke-miterlimit:4;stroke-dasharray:none;stroke-opacity:1" transform="matrix(0.28222222,0,0,0.28222222,-10.392658,1.7940939)">
        <g id="g12" style="stroke-width:2.36400008" transform="matrix(0.42297932,0,0,0.42297932,-11.083711,3.1945516)">
<!--color: #004794-->
        </g>
    </g>
</svg>

<?xml version="1.0" encoding="UTF-8" standalone="no"?>
<svg id="svg2" xmlns:rdf="http://www.w3.org/1999/02/22-rdf-syntax-ns#" xmlns="http://www.w3.org/2000/svg" height="24" viewBox="0 0 6.7733335 6.7733335" width="24" version="1.1" xmlns:cc="http://creativecommons.org/ns#" xmlns:dc="http://purl.org/dc/elements/1.1/">
 <metadata id="metadata18">
  <rdf:RDF>
   <cc:Work rdf:about="">
    <dc:format>image/svg+xml</dc:format>
    <dc:type rdf:resource="http://purl.org/dc/dcmitype/StillImage"/>
    <dc:title/>
   </cc:Work>
  </rdf:RDF>
 </metadata>
 <path id="path4171" d="m3.3867 1.1289c-0.6063 0.5559-1.6272 1.0456-1.9756 1.1289 0 1.5052 0.74083 3.1358 1.9756 3.3867 1.2347-0.2509 1.9755-1.8815 1.9755-3.3867-0.3484-0.0833-1.3693-0.573-1.9755-1.1289zm0.04079 1.1283v0.0005504h0.0005644c0.36943 0.013547 0.70559 0.2081 0.90399 0.51318l0.3918-0.1307-0.4432 0.888-0.888-0.4443 0.3605-0.1201c-0.0954-0.083-0.2152-0.1374-0.3467-0.1422-0.2094-0.0076-0.4049 0.1002-0.5099 0.2816l-0.4889-0.2822c0.2089-0.3618 0.6023-0.5794 1.0198-0.5639zm-0.9349 0.9878 0.888 0.4443-0.3605 0.1201c0.0954 0.083 0.2152 0.1369 0.3467 0.1417 0.2094 0.0076 0.4049-0.1002 0.5099-0.2817l0.4889 0.2823c-0.2088 0.3618-0.6023 0.5794-1.0197 0.5639-0.3695-0.0136-0.7056-0.2081-0.904-0.5132l-0.3919 0.1306 0.4426-0.888z" fill-rule="evenodd" fill="#fff"/>
 <g id="g6" transform="matrix(.28222 0 0 .28222 -10.604 .81153)">
  <g id="g8" transform="matrix(.42298 0 0 .42298 -11.084 3.1946)"><!--color: #004794--></g>
 </g>
 <g id="g10" transform="matrix(.28222 0 0 .28222 -10.393 1.7941)" stroke="#000">
  <g id="g12" stroke-width="2.364" transform="matrix(.42298 0 0 .42298 -11.084 3.1946)"><!--color: #004794--></g>
 </g>
</svg>
